X:22
T:Come West Along the Road
S:Sean Gavin
R:reel
M:C|
L:1/8
K:G
d2BG dGBG | G2Bd edge | d2BG dGBG | ABcd edBc |
d2BG dGBG | G2Bd edge | d2BG dGBG | ABcd edBc :| 
|: g2bg egdg | egdg edBd | g2bg egdg | ABcd edBc | 
g2bg egdg | egdg edBd | gbbg efge | dega bage :|

